X:0404
T:The Loudon.
M:2/4
L:1/8
Q:1/4=104
I: :: :: :: ::
N:I suspect that the "chords" are alternates for violin and flute
Z:Jack Campin * www.campin.me.uk * 2009
K:G
 d>edB      | A>GAB  |c>Bcd|e>fge| d>edB      | e>fge     |d>BAB|GGG2::
 B>dGd      | Bded   |B>dGB|AD D2| BdGd       |^cdeg      |fed^c|d2d2::
.g.g(gf)    |.e.e(ed)|BdGB |AD D2|.g.g{a}(gf) |.e.e{f}(ed)|B>GAB|GGG2::
[BB,]>[dD]GD| E>Gce  |dBdB |AFED |[BB,]>[dD]GD| EGce      |d>BAB|GGG2:|
<end>
<start>
